X:1
T: The Border Rievers
C:Bruce Shawyer
R:Reel
Q:232
K:D
M:4/4
L:1/16
|:"D"F2G2A4 D2E2F4|"G"G2A2B4 "Em"E2F2G4|"A"C2D2E4 "A7"E2F2G4|"D"A4F4 F4z4|
"D"F2G2A4 F2E2D4|"G"G2A2B4 "Em"G2F2E2D2|"A7"C2D2E2F2 G2A2B2c2|"D"d4D4 D4z4:|
|:"D"F2G2A4 "Bm"B2A2G2F2|"G"G2A2B4 "Em"A2G2F2E2|"D"D2E2F4 "E7"^G2A2B4|"A"c4A4 A4z4|
"D"F2G2A4 "Bm"B2A2G2F2|"G"G2A2B4 "Em"G2F2E2D2|"A7"C2D2E2F2 G2A2B2c2|"D"d4D4 D4z4:|
